X: 36
T: No_129_Song_of_Protection_During_the_Civil_War.krn
N: Derived from No_129_Song_of_Protection_During_the_Civil_War.krn
%%abc-version 2.0
%%abcx-abcm2ps-target-version 5.9.1 (29 Sep 2008)
%%abc-creator hum2abc beta
%%abcx-conversion-date 2019/03/15 08:35:44
%%humdrum-veritas 3288568797
%%humdrum-veritas-data 3622348549
%%linebreak <none>
%%barnumbers 0
L: 1/8
M: 2/4
K: G clef=bass
[K:clef=bass][M:2/4]z2G,G, | 
B,2B,2 | 
B,2G,G, | 
A,2A,2 | 
A,2B,A, ||  
[M:3/4]G,2G,2G,E, ||  
[M:6/8]G,G,E, G,G,D, ||  
[M:2/4]E,2G,E, | 
D,2D,2 | 
D, z G,G, ||  
[M:3/4]G,2G,2D,D, | 
E,2E, z G,E, ||  
[M:5/8]D,2D, z D, | 
D,B,,B,,G,,G,, ||  
[M:2/4]G,,2G,, z | 
G,,2G,,2 | 
G,,2z2 |]  



